Newaita/actions/16/draw-text.svg

<?xml version="1.0" encoding="UTF-8"?>
<svg xmlns="http://www.w3.org/2000/svg" xmlns:xlink="http://www.w3.org/1999/xlink" width="16pt" height="16pt" viewBox="0 0 16 16" version="1.1">
<g id="surface1">
<path style=" stroke:none;fill-rule:nonzero;fill:rgb(47.058824%,56.470591%,61.176473%);fill-opacity:1;" d="M 4.464844 0.785156 C 4.191406 0.785156 3.96875 1.007812 3.96875 1.28125 L 3.96875 2.9375 C 3.96875 3.210938 4.191406 3.433594 4.464844 3.433594 L 6.613281 3.433594 L 6.613281 11.535156 C 6.613281 11.8125 6.835938 12.03125 7.113281 12.03125 L 8.765625 12.03125 C 9.039062 12.03125 9.261719 11.8125 9.261719 11.535156 L 9.261719 3.433594 L 11.410156 3.433594 C 11.6875 3.433594 11.90625 3.210938 11.90625 2.9375 L 11.90625 1.28125 C 11.90625 1.007812 11.6875 0.785156 11.410156 0.785156 Z M 4.464844 0.785156 "/>
<path style=" stroke:none;fill-rule:nonzero;fill:rgb(25.882354%,25.882354%,25.882354%);fill-opacity:1;" d="M 2.480469 0.785156 C 2.207031 0.785156 1.984375 1.007812 1.984375 1.28125 L 1.984375 13.023438 L 1.15625 13.023438 C 0.882812 13.023438 0.660156 13.246094 0.660156 13.519531 C 0.660156 13.796875 0.882812 14.015625 1.15625 14.015625 L 1.984375 14.015625 L 1.984375 14.84375 C 1.984375 15.117188 2.207031 15.339844 2.480469 15.339844 C 2.753906 15.339844 2.976562 15.117188 2.976562 14.84375 L 2.976562 14.015625 L 12.898438 14.015625 L 12.898438 14.84375 C 12.898438 15.117188 13.121094 15.339844 13.394531 15.339844 C 13.671875 15.339844 13.890625 15.117188 13.890625 14.84375 L 13.890625 14.015625 L 14.71875 14.015625 C 14.992188 14.015625 15.214844 13.796875 15.214844 13.519531 C 15.214844 13.246094 14.992188 13.023438 14.71875 13.023438 L 13.890625 13.023438 L 13.890625 1.28125 C 13.890625 1.007812 13.671875 0.785156 13.394531 0.785156 C 13.121094 0.785156 12.898438 1.007812 12.898438 1.28125 L 12.898438 13.023438 L 2.976562 13.023438 L 2.976562 1.28125 C 2.976562 1.007812 2.753906 0.785156 2.480469 0.785156 Z M 2.480469 0.785156 "/>
</g>
</svg>

<svg xmlns="http://www.w3.org/2000/svg" width="16pt" height="16pt" viewBox="0 0 16 16"><path d="M4.465.785a.497.497 0 0 0-.496.496v1.657c0 .273.222.496.496.496h2.148v8.101c0 .277.223.496.5.496h1.653a.494.494 0 0 0 .496-.496V3.434h2.148a.494.494 0 0 0 .496-.497V1.282a.494.494 0 0 0-.496-.496zm0 0" fill="#78909c"/><path d="M2.48.785a.497.497 0 0 0-.496.496v11.742h-.828a.497.497 0 0 0 0 .993h.828v.828a.497.497 0 0 0 .993 0v-.828h9.921v.828a.497.497 0 0 0 .993 0v-.828h.828a.497.497 0 0 0 0-.992h-.828V1.28a.497.497 0 0 0-.992 0v11.742H2.976V1.281A.497.497 0 0 0 2.48.785zm0 0" fill="#424242"/></svg>
